X: 9151
T: Dal Gcais
R: reel
M: 4/4
K: Gmajor
eA (3AAA Aged|eAAe dBGg|eA (3AAA Aged|egfa gedg|
eA (3AAA Aged|eAAe dBGB|ABcd ecaf|gedB BAAg|
eA (3AAA Aged|eAAe dBGg|eA (3AAA Aged|egfa gedg|
eA (3AAA Aged|eAAe dBGB|ABcd ecaf|gedB BAA^c|
|:d3A BAd2-|dAdA Bdfe|defd BdAB|dBAF EFDb|
d3A BAd2-|dAdA Bdfe|defd BdAB|dBAF EFD2:|
|:a2fa bAaA|gAfA eAdA|~B2dB ABde|fd ~d2 efge|
a2fa bAaA|gAfA eAdA|~B2dB ABdB|AFEG FDD2:|

